X:69
T:Lavena
T:The Passionate Lover(s)
M:6/8
L:1/8
K:Dm
%
Hd3 A3 |: "Dm" d2 d "A7" ^c=Bc | "Dm" d2 d "A7" A3 | "Dm" d3 "A7" ^c>=Bc | "Dm" d2 "A7" A2 z2 |
"Gm" Bdc BcB |"Dm" ABA "Gm" GFE | "Dm" FGA "Gm" GAF | "A7" E3 "Dm" D2 (3A/B/c/ :|
%
%
